X:75
T:Countess of Coventry's March
M:2/4
L:1/8
B:Thompson's Compleat Collection of 200 Favourite Country Dances, vol. 1 (London, 1757)
Z:Transcribed and edited by Fynnian Titford-Mock, 2007
Z:abc's:AK/Fiddler's Companion
K:D
gb b2|fa a2|egfd|ecBA|gb b2|fa a2|Adce|d2 D2:|
|:fafd|gbge|fafd|ce e2|fafd|gbge|Adce|d2 D2:|

